main/svg/copper2oxideOneThird.svg

<?xml version="1.0" encoding="UTF-8" standalone="no"?>
<svg
   width="32"
   height="32"
   version="1.1"
   id="svg2367"
   sodipodi:docname="copper2oxideOneThird.svg"
   inkscape:version="1.2.2 (b0a8486, 2022-12-01)"
   xmlns:inkscape="http://www.inkscape.org/namespaces/inkscape"
   xmlns:sodipodi="http://sodipodi.sourceforge.net/DTD/sodipodi-0.dtd"
   xmlns="http://www.w3.org/2000/svg"
   xmlns:svg="http://www.w3.org/2000/svg">
  <defs
     id="defs2371" />
  <sodipodi:namedview
     id="namedview2369"
     pagecolor="#505050"
     bordercolor="#ffffff"
     borderopacity="1"
     inkscape:showpageshadow="0"
     inkscape:pageopacity="0"
     inkscape:pagecheckerboard="1"
     inkscape:deskcolor="#505050"
     showgrid="true"
     inkscape:zoom="32.09375"
     inkscape:cx="7.4001947"
     inkscape:cy="16.031159"
     inkscape:window-width="2560"
     inkscape:window-height="1301"
     inkscape:window-x="0"
     inkscape:window-y="25"
     inkscape:window-maximized="0"
     inkscape:current-layer="svg2367">
    <inkscape:grid
       type="xygrid"
       id="grid2512"
       empspacing="4" />
  </sodipodi:namedview>
  <path
     style="stroke:none;fill-rule:nonzero;fill:#000;fill-opacity:1"
     d="M 12,14"
     id="path2518" />
  <path
     style="stroke:none;fill-rule:nonzero;fill:#000;fill-opacity:1"
     d="m 12,14 v 4 c 0.055,2.227 1.824,4 4,4 0.809,0 1.602,-0.254 2.27,-0.73 L 19,22 h 1 v -8 h -2 v 4 a 2,2 0 0 1 -2,2 c -1.105,0 -2,-0.898 -2,-2 v -4 z"
     id="path2516" />
  <path
     style="fill:#000000;fill-opacity:0.333333;fill-rule:nonzero;stroke:none"
     d="M 26.883,17"
     id="path3873" />
  <path
     style="fill:#000000;fill-opacity:0.333333;fill-rule:nonzero;stroke:none;stroke-width:1.02985"
     d="M 26.956818,17 C 26.817069,18.081306 26.474329,19.002495 26,19.557704 V 22 c 1.557633,-0.617592 2.729684,-2.575379 3,-5 z"
     id="path3871" />
  <path
     style="fill:#000000;fill-opacity:0.333333;fill-rule:nonzero;stroke:none;stroke-width:1.01967"
     d="m 21,17 c 0.265,2.424621 1.418,4.382408 2.945,5 V 19.562903 C 23.476,19.006654 23.136,18.084425 23,17 Z"
     id="path3869"
     sodipodi:nodetypes="ccccc" />
  <path
     style="fill:#000000;fill-opacity:0.333333;fill-rule:nonzero;stroke:none;stroke-width:1.00957"
     d="m 26.002941,10 v 2.437097 C 26.45877,12.998544 26.869623,13.919734 27,15 h 1.883 C 28.623226,12.575379 27.496886,10.617592 26,10 Z"
     id="path3867"
     sodipodi:nodetypes="cccccc" />
  <path
     style="fill:#000000;fill-opacity:0.333333;fill-rule:nonzero;stroke:none;stroke-width:1.02984"
     d="M 24.00408,10 C 22.446447,10.617592 21.270316,12.575379 21,15 h 2 c 0.138729,-1.081306 0.525672,-2.006654 1,-2.562903 z"
     id="path2365"
     sodipodi:nodetypes="ccccc" />
  <path
     id="path1476"
     style="fill:#000000;stroke-width:0.0691833;stop-color:#000000"
     d="M 7.6660156 10 C 5.3073509 10 3 12.66667 3 16 C 3 19.33333 5.3073509 22 7.6660156 22 C 10.190679 22 11 20.666666 11 20 L 9 19 L 9 19.333984 C 8.7620004 19.746651 8.1426812 20 7.6660156 20 C 6.1926836 20 5 18.209331 5 16 C 5 13.790669 6.1926836 12 7.6660156 12 C 8.1420148 12 8.7620004 12.254016 9 12.666016 L 9 13 L 11 12 C 11 11.333335 10.332679 10 7.6660156 10 z " />
</svg>

<svg xmlns="http://www.w3.org/2000/svg" width="32" height="32"><path d="M12 14v4c.055 2.227 1.824 4 4 4 .809 0 1.602-.254 2.27-.73L19 22h1v-8h-2v4a2 2 0 0 1-2 2c-1.105 0-2-.898-2-2v-4z" style="stroke:none;fill-rule:nonzero;fill:#000;fill-opacity:1"/><path d="M26.957 17c-.14 1.081-.483 2-.957 2.558V22c1.558-.618 2.73-2.575 3-5z" style="fill:#000;fill-opacity:.333333;fill-rule:nonzero;stroke:none;stroke-width:1.02985"/><path d="M21 17c.265 2.425 1.418 4.382 2.945 5v-2.437c-.469-.556-.809-1.479-.945-2.563Z" style="fill:#000;fill-opacity:.333333;fill-rule:nonzero;stroke:none;stroke-width:1.01967"/><path d="M26.003 10v2.437C26.459 13 26.87 13.92 27 15h1.883c-.26-2.425-1.386-4.382-2.883-5Z" style="fill:#000;fill-opacity:.333333;fill-rule:nonzero;stroke:none;stroke-width:1.00957"/><path d="M24.004 10c-1.558.618-2.734 2.575-3.004 5h2c.139-1.081.526-2.007 1-2.563z" style="fill:#000;fill-opacity:.333333;fill-rule:nonzero;stroke:none;stroke-width:1.02984"/><path d="M7.666 10C5.307 10 3 12.667 3 16s2.307 6 4.666 6C10.191 22 11 20.667 11 20l-2-1v.334c-.238.413-.857.666-1.334.666C6.193 20 5 18.21 5 16s1.193-4 2.666-4c.476 0 1.096.254 1.334.666V13l2-1c0-.667-.667-2-3.334-2z" style="fill:#000;stroke-width:.0691833;stop-color:#000"/></svg>
